static/social/note.svg

<?xml version="1.0" encoding="UTF-8"?>
<svg width="400px" height="400px" viewBox="0 0 400 400" version="1.1" xmlns="http://www.w3.org/2000/svg" xmlns:xlink="http://www.w3.org/1999/xlink">
    <!-- Generator: Sketch 64 (93537) - https://sketch.com -->
    <title>normal/logo_symbol</title>
    <desc>Created with Sketch.</desc>
    <g id="normal/logo_symbol" stroke="none" stroke-width="1" fill="none" fill-rule="evenodd">
        <rect fill="#FFFFFF" x="0" y="0" width="400" height="400"></rect>
        <path d="M180.388501,169.6969 L180.388501,155.318324 C180.388501,152.698052 180.524171,151.824229 180.927578,150.479979 C182.005733,146.784785 185.646008,144.030448 189.958629,144.030448 C194.27125,144.030448 197.910324,146.851818 198.988479,150.479979 C199.393087,151.824229 199.528757,152.698052 199.528757,155.318324 L199.528757,177.490682 C199.528757,178.834933 199.528757,180.177986 199.258618,181.388171 C198.517837,184.747003 195.485075,187.771866 192.114939,188.510426 C190.902315,188.778558 189.554021,188.778558 188.205726,188.778558 L165.966674,188.778558 C163.33852,188.778558 162.462069,188.644492 161.113775,188.241097 C157.474701,187.166175 154.644843,183.538015 154.644843,179.238327 C154.644843,174.937443 157.474701,171.309283 161.113775,170.234361 C162.462069,169.830966 163.33852,169.6969 165.966674,169.6969 L180.388501,169.6969 Z M259.642514,270.215259 L140.357486,270.215259 L140.357486,165.464245 C140.357486,164.119995 140.829329,162.97804 141.773015,162.037184 L172.705744,131.196024 C173.64943,130.256366 174.79482,129.785938 176.143114,129.785938 L259.642514,129.785938 L259.642514,270.215259 Z M273.18909,106.134066 C272.582778,106.067033 271.773561,106 270.223563,106 L172.974683,106 C171.897728,106 170.819573,106.067033 170.077591,106.134066 C165.6293,106.537461 161.652852,108.620272 158.485621,111.778004 L122.295384,147.859707 C119.129354,151.018637 117.039078,154.981962 116.63567,159.416912 C116.567235,160.155472 116.5,161.230394 116.5,162.305316 L116.5,280.763379 C116.5,282.308729 116.567235,283.115519 116.63567,283.720012 C117.173547,288.759457 121.756307,293.327276 126.81091,293.864737 C127.418423,293.932967 128.226439,294 129.776437,294 L270.223563,294 C271.773561,294 272.582778,293.932967 273.18909,293.864737 C278.243693,293.327276 282.826453,288.759457 283.365531,283.720012 C283.431565,283.115519 283.5,282.308729 283.5,280.763379 L283.5,119.236621 C283.5,117.691271 283.431565,116.884481 283.365531,116.279988 C282.826453,111.240543 278.243693,106.671527 273.18909,106.134066 Z" id="Shape" fill="#41C9B4"></path>
    </g>
</svg>

<svg width="400" height="400" xmlns="http://www.w3.org/2000/svg"><g fill="none" fill-rule="evenodd"><path fill="#FFF" d="M0 0h400v400H0z"/><path d="M180.389 169.697v-14.379c0-2.62.135-3.494.539-4.838 1.078-3.695 4.718-6.45 9.03-6.45 4.313 0 7.952 2.822 9.03 6.45.405 1.344.54 2.218.54 4.838v22.173c0 1.344 0 2.687-.27 3.897-.74 3.359-3.773 6.384-7.143 7.122-1.213.269-2.561.269-3.91.269h-22.238c-2.628 0-3.505-.135-4.853-.538-3.64-1.075-6.47-4.703-6.47-9.003s2.83-7.929 6.47-9.004c1.348-.403 2.225-.537 4.853-.537h14.422zm79.254 100.518H140.357v-104.75c0-1.345.472-2.487 1.416-3.428l30.933-30.841c.943-.94 2.089-1.41 3.437-1.41h83.5v140.43zm13.546-164.08c-.606-.068-1.415-.135-2.965-.135h-97.25c-1.076 0-2.154.067-2.896.134-4.449.403-8.425 2.486-11.592 5.644l-36.19 36.082c-3.167 3.159-5.257 7.122-5.66 11.557a32.893 32.893 0 0 0-.136 2.888v118.458c0 1.546.067 2.353.136 2.957.538 5.04 5.12 9.607 10.175 10.145.607.068 1.415.135 2.965.135h140.448c1.55 0 2.359-.067 2.965-.135 5.055-.538 9.637-5.106 10.177-10.145.066-.604.134-1.411.134-2.957V119.237c0-1.546-.068-2.353-.134-2.957-.54-5.04-5.122-9.608-10.177-10.146z" fill="#41C9B4"/></g></svg>
